_uploads/ornament-year-solid.svg

<svg width="72" height="30" viewBox="0 0 72 30" fill="none" xmlns="http://www.w3.org/2000/svg">
<path d="M0 15.3191C0 6.85591 16.1169 0 36 0C55.8831 0 72 6.85591 72 15.3191C72 23.7824 55.8831 30 36 30C16.1169 30 0 23.7824 0 15.3191Z" fill="black"/>
<path fill-rule="evenodd" clip-rule="evenodd" d="M20.9962 19.9659H11.0089V18.8004C11.2453 17.0102 12.8996 15.4943 15.6595 14.6716L15.6876 14.6627C17.0162 14.2403 18.0686 13.9057 18.0686 13.3233C18.0686 12.7367 17.0699 12.3863 16.0483 12.3863C15.4034 12.397 14.7672 12.5375 14.1778 12.7992C13.5883 13.061 13.0577 13.4387 12.6176 13.9098L11.1385 12.4853C11.7789 11.7989 12.5599 11.2585 13.4282 10.9009C14.2965 10.5434 15.2318 10.377 16.1703 10.4133C18.4117 10.4133 20.8056 11.2893 20.8056 13.2928C20.8056 14.8925 19.3342 15.8066 17.2834 16.4313C15.7586 16.9112 14.5083 17.4673 14.1957 17.9548H20.9962V19.9659ZM29.1004 20.2782C25.54 20.2782 23.3062 18.4576 23.3062 15.3191C23.3062 12.1806 25.54 10.36 29.1004 10.36C32.6608 10.36 34.9098 12.1806 34.9098 15.3191C34.9098 18.4576 32.676 20.2782 29.1004 20.2782ZM47.0775 19.9659H37.0902V18.8004C37.3266 17.0102 38.981 15.4943 41.7408 14.6716C43.0902 14.245 44.15 13.9098 44.15 13.3233C44.15 12.7367 43.1512 12.3863 42.1296 12.3863C41.4848 12.3979 40.8489 12.5387 40.2596 12.8004C39.6703 13.0621 39.1396 13.4394 38.6989 13.9098L37.2275 12.4853C37.8658 11.7983 38.6453 11.2574 39.5125 10.8997C40.3797 10.542 41.3141 10.3761 42.2516 10.4133C44.5007 10.4133 46.8869 11.2893 46.8869 13.2928C46.8869 14.8925 45.4155 15.8066 43.3647 16.4313C41.8399 16.9112 40.5896 17.4673 40.3151 17.9548H47.108L47.0775 19.9659ZM55.1817 20.2782C51.6214 20.2782 49.3876 18.4576 49.3876 15.3191C49.3876 12.1806 51.6214 10.36 55.1817 10.36C58.7421 10.36 60.9911 12.1882 60.9911 15.3191C60.9911 18.45 58.7649 20.2782 55.1817 20.2782ZM55.2639 12.6C53.3413 12.6 52.2 13.5727 52.2 15.3651C52.2 17.1574 53.349 18.1302 55.2639 18.1302C57.1788 18.1302 58.3277 17.1574 58.3277 15.3651C58.3277 13.5727 57.1788 12.6 55.2639 12.6ZM26.05 15.3651C26.05 13.5728 27.1913 12.6 29.1138 12.6C31.0211 12.6 32.1777 13.5728 32.1777 15.3651C32.1777 17.1574 31.0287 18.1302 29.1138 18.1302C27.199 18.1302 26.05 17.1574 26.05 15.3651Z" fill="white"/>
</svg>

<svg width="72" height="30" fill="none" xmlns="http://www.w3.org/2000/svg"><path d="M0 15.32C0 6.855 16.117 0 36 0s36 6.856 36 15.32C72 23.781 55.883 30 36 30S0 23.782 0 15.32z" fill="#000"/><path fill-rule="evenodd" clip-rule="evenodd" d="M20.996 19.966H11.01V18.8c.236-1.79 1.89-3.306 4.65-4.128l.029-.01c1.328-.422 2.38-.756 2.38-1.339 0-.586-.998-.937-2.02-.937a4.806 4.806 0 0 0-3.43 1.524l-1.48-1.425a6.535 6.535 0 0 1 5.032-2.072c2.242 0 4.636.876 4.636 2.88 0 1.6-1.472 2.514-3.523 3.138-1.524.48-2.775 1.036-3.087 1.524h6.8v2.01zm8.104.312c-3.56 0-5.794-1.82-5.794-4.959 0-3.138 2.234-4.959 5.794-4.959 3.56 0 5.81 1.82 5.81 4.96 0 3.138-2.234 4.958-5.81 4.958zm17.977-.312H37.09V18.8c.237-1.79 1.891-3.306 4.65-4.128 1.35-.427 2.41-.762 2.41-1.349 0-.586-.999-.937-2.02-.937a4.821 4.821 0 0 0-3.431 1.524l-1.471-1.425a6.505 6.505 0 0 1 5.024-2.072c2.249 0 4.635.876 4.635 2.88 0 1.6-1.471 2.514-3.522 3.138-1.525.48-2.775 1.036-3.05 1.524h6.793l-.03 2.01zm8.105.312c-3.56 0-5.794-1.82-5.794-4.959 0-3.138 2.233-4.959 5.794-4.959 3.56 0 5.81 1.828 5.81 4.96 0 3.13-2.227 4.958-5.81 4.958zm.082-7.678c-1.923 0-3.064.973-3.064 2.765 0 1.792 1.149 2.765 3.064 2.765s3.064-.973 3.064-2.765c0-1.792-1.15-2.765-3.064-2.765zM26.05 15.365c0-1.792 1.141-2.765 3.064-2.765 1.907 0 3.064.973 3.064 2.765 0 1.792-1.15 2.765-3.064 2.765-1.915 0-3.064-.973-3.064-2.765z" fill="#fff"/></svg>
